!!!SOCIAL_FUNCTION:	songs of social dance
!!!PDT:	1936
!!!OTL: No_63_Song_of_Owl_Dance_(b).krn
!!!REG: Oklahoma and Montana
!!!LANG: Tone
!!!LING_GROUP: Algonquin
**kern	**kern
*staff2	*staff1
=1-	=1-
*clefF4	*clefF4
*k[f#]	*k[f#]
*M2/4	*M2/4
4GG/	4r
4GG/	8G\L
.	16G\Jk
.	16r
=2	=2
4GG/	8e\L
.	8e\J
4GG/	16e\
.	16r
.	8e\
=3	=3
*M3/4	*M3/4
2.r	16e\LK
.	8.e\J
.	16B\
.	16r
.	8B\
.	16e\LK
.	8.A\J
=4	=4
*M2/4	*M2/4
2r	8G\
.	16r
.	16G\
.	16G\LK
.	8.E\J
=5	=5
*M3/4	*M3/4
2.r	16E\LL
.	16E\J
.	8E\J
.	4r
.	8E\L
.	8E\J
=6!|:	=6!|:
*M2/4	*M2/4
2r	8e\L
.	8e\J
.	16e\
.	16r
.	8e\
=7	=7
2r	16e\LK
.	8.e\J
.	16B\
.	16r
.	8B\
=8	=8
*M3/4	*M3/4
2.r	16e\LK
.	8.A\J
.	16G\
.	16r
.	8G\
.	16G\LK
.	8.E\J
=9	=9
2.r	8E\L
.	8E\J
.	8E\
.	8r
.	8E\L
.	8E\J
=10	=10
*M2/4	*M2/4
2r	8A\L
.	8A\J
.	8A\
.	16r
.	16A\
=11	=11
*M3/4	*M3/4
2.r	16A\LK
.	8.G\J
.	16E\
.	16r
.	8G\
.	16G\LK
.	8.E\J
=12	=12
*M2/4	*M2/4
2r	8E\L
.	8E\J
.	8E\
.	8r
=13	=13
2r	16G\LK
.	8.E\J
.	8E\L
.	16E\Jk
.	16r
=14	=14
2r	16G\LK
.	8.E\J
.	8E\L
.	8E\J
=15	=15
*M3/4	*M3/4
2.r	8E\L
.	8E\J
.	4r
.	8E\L
.	8E\J
=16:|!	=16:|!
*M2/4	*M2/4
2r	4E\
.	4r
==	==
*-	*-
